X: 21522
T: The Ferny Bed
%R: waltz
B: James Oswald "The Caledonian Pocket Companion" v.2 p.152 #2
Z: 2018 John Chambers <jc:trillian.mit.edu>
M: 3/4
L: 1/8
K: Gm
"_Slow"D2 |\
G>A B2 c2 | d3 d =e^f | (g2 a2) b2 | d4(g/f/d) |\
c4 (f/d/c) | B4 (_ed) | cBABcd | G4 (de) |\
f3 d bg |
g3 d bg | (bg)(fd)(ec) | B4 :: (d>e) |\
f2 F>BA>c | B3 d (c>e) | d2 (ed)cB | c4 (c/d/e) |\
d4 (c/d/e) | d4 (bg) |
(fb)(fd)(ec) | B4 D2 |\
G>A B2 c2 | d3 d =e^f | g2 a2 b2 | d3 c (d/c/B) |\
c3 B (c/B/A) | (BA)(G^F) Gg | f2 (dc)(BA) | G4 :|


